Newaita-dark/apps/16/python.svg

<svg height="16pt" viewBox="0 0 16 16" width="16pt" xmlns="http://www.w3.org/2000/svg" xmlns:xlink="http://www.w3.org/1999/xlink"><linearGradient id="a"><stop offset="0" stop-opacity=".313726"/><stop offset=".222222" stop-opacity=".27451"/><stop offset="1" stop-opacity="0"/></linearGradient><radialGradient id="b" cx="450.908936" cy="189.579361" gradientTransform="matrix(.00000009 -.0341829 -.0703192 -.00000004 21.434673 29.657754)" gradientUnits="userSpaceOnUse" r="21.166656" xlink:href="#a"/><radialGradient id="c" cx="450.908936" cy="189.579361" gradientTransform="matrix(-.00000009 .0341829 .0703192 .00000004 -5.558157 -1.458449)" gradientUnits="userSpaceOnUse" r="21.166656" xlink:href="#a"/><radialGradient id="d" cx="450.908936" cy="189.579361" gradientTransform="matrix(-.00000009 -.0341829 .0703192 -.00000004 -5.558157 29.657754)" gradientUnits="userSpaceOnUse" r="21.166656" xlink:href="#a"/><radialGradient id="e" cx="450.908936" cy="189.579361" gradientTransform="matrix(.00000009 .0341829 -.0703192 .00000004 21.434672 -1.458449)" gradientUnits="userSpaceOnUse" r="21.166656" xlink:href="#a"/><linearGradient id="f" gradientTransform="matrix(.00668003 0 0 .0273463 6.232692 7.714285)" gradientUnits="userSpaceOnUse" x1="255.323059" x2="255.323044" y1="233.5" y2="254.666656"><stop offset="0" stop-opacity=".27451"/><stop offset="1" stop-opacity="0"/></linearGradient><linearGradient id="g" gradientUnits="userSpaceOnUse" x1="8.26902325003" x2="8.26902325003" y1="14.0169675" y2="4.755661875"><stop offset="0" stop-color="#ffa726"/><stop offset="1" stop-color="#ffb74d"/></linearGradient><linearGradient id="h" gradientUnits="userSpaceOnUse" x1="5.9536944" x2="5.9536944" y1="10.70935800048" y2="1.4480552201"><stop offset="0" stop-color="#42a5f5"/><stop offset="1" stop-color="#64b5f6"/></linearGradient><path d="m8.269531 14.101562h1.324219v-.582031h-1.324219zm0 0" fill="url(#b)"/><path d="m7.609375 14.101562h-1.324219v.578126h1.324219zm0 0" fill="url(#c)"/><path d="m7.609375 14.101562h-1.324219v-.582031h1.324219zm0 0" fill="url(#d)"/><path d="m8.269531 14.101562h1.324219v.578126h-1.324219zm0 0" fill="url(#e)"/><path d="m7.609375 13.953125h.660156v.726563h-.660156zm0 0" fill="url(#f)"/><path d="m6.945312 1.902344c-.183593 0-.332031.148437-.332031.332031 0 .027344.003907.054687.011719.082031.035156-.144531.167969-.25.320312-.25.15625 0 .285157.105469.320313.25.007813-.027344.011719-.054687.011719-.082031 0-.183594-.148438-.332031-.332032-.332031zm-1.890624 1.984375c-.011719.054687-.023438.109375-.035157.167969h2.917969v-.167969zm5.859374 2.648437c0 .546875-.441406.992188-.992187.992188h-3.96875c-.550781 0-.992187.441406-.992187.992187v.164063c0-.550782.441406-.992188.992187-.992188h3.96875c.550781 0 .992187-.441406.992187-.992187zm-9.257812 1.074219c-.003906.027344-.003906.054687-.003906.082031 0 1.648438 1.476562 2.976563 3.308594 2.976563v-.164063c-1.800782 0-3.257813-1.285156-3.304688-2.894531zm0 0" fill-opacity=".235294"/><path d="m7.9375 14.015625c1.445312 0 2.644531-1.132813 2.917969-2.644531h-2.917969v-.660156h1.984375.003906.988281c1.832032 0 3.308594-1.328126 3.308594-2.976563 0-1.652344-1.476562-2.980469-3.308594-2.980469v1.984375c0 .550781-.441406.996094-.992187.996094h-3.96875c-.550781 0-.992187.441406-.992187.992187v1.984376c0 1.832031 1.328124 3.304687 2.976562 3.304687zm.992188-.660156c-.183594 0-.328126-.148438-.328126-.332031 0-.183594.144532-.328126.328126-.328126.183593 0 .332031.144532.332031.328126 0 .183593-.148438.332031-.332031.332031zm0 0" fill="url(#g)"/><path d="m4.960938 6.738281v2.316407c0-.550782.441406-.992188.992187-.992188h3.96875c.550781 0 .992187-.441406.992187-.992188v-.332031zm0 0" fill-opacity=".235294"/><path d="m7.9375 1.449219c-1.445312 0-2.644531 1.132812-2.917969 2.644531h2.917969v.660156h-2.976562c-1.832032 0-3.308594 1.328125-3.308594 2.980469 0 1.648437 1.476562 2.976563 3.308594 2.976563v-1.984376c0-.550781.441406-.992187.992187-.992187h3.96875c.550781 0 .992187-.445313.992187-.996094v-1.984375c0-1.832031-1.328124-3.304687-2.976562-3.304687zm-.992188.660156c.183594 0 .332032.148437.332032.332031s-.148438.328125-.332032.328125c-.183593 0-.332031-.144531-.332031-.328125s.148438-.332031.332031-.332031zm0 0" fill="url(#h)"/><path d="m7.9375 1.488281c-1.445312 0-2.644531 1.132813-2.917969 2.648438h.035157c.328124-1.429688 1.492187-2.480469 2.882812-2.480469 1.648438 0 2.976562 1.472656 2.976562 3.304688v-.164063c0-1.832031-1.328124-3.308594-2.976562-3.308594zm-1.3125 1.074219c-.007812.027344-.011719.054688-.011719.085938 0 .183593.148438.328124.332031.328124.183594 0 .332032-.144531.332032-.328124 0-.03125-.003906-.058594-.011719-.085938-.035156.144531-.164063.25-.320313.25-.152343 0-.285156-.105469-.320312-.25zm-.671875 2.234375h-.992187c-1.832032 0-3.308594 1.328125-3.308594 2.976563 0 .027343 0 .054687.003906.082031.046875-1.609375 1.503906-2.894531 3.304688-2.894531h2.976562v-.164063zm0 0" fill="#fff" fill-opacity=".392157"/><path d="m10.914062 4.796875v.164063c1.800782 0 3.257813 1.285156 3.308594 2.894531 0-.027344 0-.054688 0-.082031 0-1.648438-1.476562-2.976563-3.308594-2.976563zm-2.976562 6.617187v.164063h2.882812c.015626-.054687.027344-.109375.035157-.164063zm.671875 1.734376c-.007813.027343-.007813.054687-.007813.082031 0 .183593.144532.332031.328126.332031.183593 0 .332031-.148438.332031-.332031 0-.027344-.003907-.054688-.011719-.082031-.035156.144531-.164062.25-.320312.25-.152344 0-.28125-.105469-.320313-.25zm0 0" fill="#fff" fill-opacity=".392157"/><path d="m14.222656 7.609375c-.050781 1.609375-1.507812 2.894531-3.308594 2.894531h-.988281c-.003906 0-.003906 0-.003906 0h-1.984375v.164063h1.984375.003906.988281c1.832032 0 3.308594-1.328125 3.308594-2.976563 0-.027344 0-.054687 0-.082031zm-9.261718 2.894531v.164063c0 1.832031 1.328124 3.308593 2.976562 3.308593 1.445312 0 2.644531-1.132812 2.917969-2.648437h-.035157c-.328124 1.429687-1.488281 2.480469-2.882812 2.480469-1.648438 0-2.976562-1.472656-2.976562-3.304688zm3.96875 1.984375c-.183594 0-.328126.144531-.328126.328125 0 .03125 0 .058594.007813.085938.039063-.144532.167969-.25.320313-.25.15625 0 .285156.105468.320312.25.007812-.027344.011719-.054688.011719-.085938 0-.183594-.148438-.328125-.332031-.328125zm0 0" fill-opacity=".235294"/><path d="m7.9375 1.402344c-1.46875 0-2.683594 1.152344-2.964844 2.683594 0 .011718.003906.027343.011719.039062s.023437.015625.035156.015625h2.871094v.566406h-2.929687c-1.855469 0-3.355469 1.347657-3.355469 3.027344 0 1.675781 1.5 3.023437 3.355469 3.023437.027343 0 .046874-.023437.046874-.046874v-1.984376c0-.527343.421876-.945312.945313-.945312h3.96875c.574219 0 1.039063-.464844 1.039063-1.042969v-1.984375c0-1.851562-1.34375-3.351562-3.023438-3.351562zm0 .09375c1.621094 0 2.929688 1.449218 2.929688 3.257812v1.984375c0 .527344-.417969.949219-.945313.949219h-3.96875c-.574219 0-1.039063.460938-1.039063 1.039062v1.933594c-1.789062-.019531-3.214843-1.320312-3.214843-2.925781 0-1.625 1.453125-2.933594 3.261719-2.933594h2.976562c.027344 0 .046875-.019531.046875-.046875v-.660156c0-.027344-.019531-.046875-.046875-.046875h-2.859375c.289063-1.464844 1.457031-2.550781 2.859375-2.550781zm-.992188.566406c-.207031 0-.378906.167969-.378906.378906 0 .207032.171875.375.378906.375.210938 0 .378907-.167968.378907-.375 0-.210937-.167969-.378906-.378907-.378906zm0 .09375c.160157 0 .285157.125.285157.285156 0 .15625-.125.28125-.285157.28125-.15625 0-.285156-.125-.285156-.28125 0-.160156.128906-.285156.285156-.285156zm0 0" fill="#212121"/><path d="m10.914062 4.707031c-.023437 0-.046874.023438-.046874.046875v1.984375c0 .527344-.417969.949219-.945313.949219h-3.96875c-.574219 0-1.039063.460938-1.039063 1.039062v1.984376c0 1.851562 1.347657 3.351562 3.023438 3.351562 1.46875 0 2.6875-1.152344 2.964844-2.683594.003906-.011718 0-.027344-.011719-.039062-.007813-.007813-.019531-.015625-.035156-.015625h-2.871094v-.566407h1.9375.003906.988281c1.855469 0 3.355469-1.347656 3.355469-3.023437 0-1.679687-1.5-3.027344-3.355469-3.027344zm.046876.097657c1.789062.023437 3.214843 1.320312 3.214843 2.929687 0 1.621094-1.449219 2.929687-3.261719 2.929687h-.988281c-.003906 0-.003906 0-.003906 0h-1.984375c-.023438 0-.046875.019532-.046875.046876v.660156c0 .027344.023437.046875.046875.046875h2.859375c-.289063 1.464843-1.457031 2.550781-2.859375 2.550781-1.621094 0-2.929688-1.449219-2.929688-3.257812v-1.984376c0-.527343.421876-.945312.945313-.945312h3.96875c.574219 0 1.039063-.464844 1.039063-1.042969zm-2.03125 7.84375c-.207032 0-.375.167968-.375.375 0 .210937.167968.378906.375.378906.210937 0 .378906-.167969.378906-.378906 0-.207032-.167969-.375-.378906-.375zm0 .09375c.160156 0 .285156.125.285156.28125 0 .160156-.125.285156-.285156.285156-.15625 0-.28125-.125-.28125-.285156 0-.15625.125-.28125.28125-.28125zm0 0" fill="#212121"/><g fill="#fff" fill-opacity=".235294"><path d="m2.816406 6.011719c.097656.054687.0625.292969-.074218.53125-.136719.234375-.324219.382812-.417969.328125-.097657-.054688-.0625-.289063.074219-.527344.136718-.238281.324218-.386719.417968-.332031zm0 0"/><path d="m6.277344 2.507812c.09375.054688.0625.289063-.074219.527344-.136719.238282-.324219.386719-.421875.332032-.09375-.054688-.058594-.292969.078125-.53125.136719-.234376.324219-.382813.417969-.328126zm0 0"/></g></svg>

<?xml version="1.0" encoding="UTF-8"?>
<svg xmlns="http://www.w3.org/2000/svg" xmlns:xlink="http://www.w3.org/1999/xlink" width="16pt" height="16pt" viewBox="0 0 16 16" version="1.1">
<defs>
<radialGradient id="radial0" gradientUnits="userSpaceOnUse" cx="450.908936" cy="189.579361" fx="450.908936" fy="189.579361" r="21.166656" gradientTransform="matrix(0.0000000870852,-0.0341829,-0.0703192,-0.0000000444231,21.434673,29.657754)">
<stop offset="0" style="stop-color:rgb(0%,0%,0%);stop-opacity:0.313726;"/>
<stop offset="0.222222" style="stop-color:rgb(0%,0%,0%);stop-opacity:0.27451;"/>
<stop offset="1" style="stop-color:rgb(0%,0%,0%);stop-opacity:0;"/>
</radialGradient>
<radialGradient id="radial1" gradientUnits="userSpaceOnUse" cx="450.908936" cy="189.579361" fx="450.908936" fy="189.579361" r="21.166656" gradientTransform="matrix(-0.0000000870852,0.0341829,0.0703192,0.0000000444231,-5.558157,-1.458449)">
<stop offset="0" style="stop-color:rgb(0%,0%,0%);stop-opacity:0.313726;"/>
<stop offset="0.222222" style="stop-color:rgb(0%,0%,0%);stop-opacity:0.27451;"/>
<stop offset="1" style="stop-color:rgb(0%,0%,0%);stop-opacity:0;"/>
</radialGradient>
<radialGradient id="radial2" gradientUnits="userSpaceOnUse" cx="450.908936" cy="189.579361" fx="450.908936" fy="189.579361" r="21.166656" gradientTransform="matrix(-0.0000000870852,-0.0341829,0.0703192,-0.0000000444231,-5.558157,29.657754)">
<stop offset="0" style="stop-color:rgb(0%,0%,0%);stop-opacity:0.313726;"/>
<stop offset="0.222222" style="stop-color:rgb(0%,0%,0%);stop-opacity:0.27451;"/>
<stop offset="1" style="stop-color:rgb(0%,0%,0%);stop-opacity:0;"/>
</radialGradient>
<radialGradient id="radial3" gradientUnits="userSpaceOnUse" cx="450.908936" cy="189.579361" fx="450.908936" fy="189.579361" r="21.166656" gradientTransform="matrix(0.0000000870852,0.0341829,-0.0703192,0.0000000444231,21.434672,-1.458449)">
<stop offset="0" style="stop-color:rgb(0%,0%,0%);stop-opacity:0.313726;"/>
<stop offset="0.222222" style="stop-color:rgb(0%,0%,0%);stop-opacity:0.27451;"/>
<stop offset="1" style="stop-color:rgb(0%,0%,0%);stop-opacity:0;"/>
</radialGradient>
<linearGradient id="linear0" gradientUnits="userSpaceOnUse" x1="255.323059" y1="233.5" x2="255.323044" y2="254.666656" gradientTransform="matrix(0.00668003,0,0,0.0273463,6.232692,7.714285)">
<stop offset="0" style="stop-color:rgb(0%,0%,0%);stop-opacity:0.27451;"/>
<stop offset="1" style="stop-color:rgb(0%,0%,0%);stop-opacity:0;"/>
</linearGradient>
<linearGradient id="linear1" gradientUnits="userSpaceOnUse" x1="264.583344" y1="233.5" x2="264.583344" y2="-62.833332" gradientTransform="matrix(0.031253,0,0,0.031253,0,6.719392)">
<stop offset="0" style="stop-color:rgb(100%,65.490198%,14.901961%);stop-opacity:1;"/>
<stop offset="1" style="stop-color:rgb(100%,71.764708%,30.19608%);stop-opacity:1;"/>
</linearGradient>
<linearGradient id="linear2" gradientUnits="userSpaceOnUse" x1="720" y1="1295.118164" x2="720" y2="175.118118" gradientTransform="matrix(0.00826902,0,0,0.00826902,0,0)">
<stop offset="0" style="stop-color:rgb(25.882354%,64.705884%,96.078432%);stop-opacity:1;"/>
<stop offset="1" style="stop-color:rgb(39.215687%,70.980394%,96.470588%);stop-opacity:1;"/>
</linearGradient>
</defs>
<g id="surface1">
<path style=" stroke:none;fill-rule:nonzero;fill:url(#radial0);" d="M 8.269531 14.101562 L 9.59375 14.101562 L 9.59375 13.519531 L 8.269531 13.519531 Z M 8.269531 14.101562 "/>
<path style=" stroke:none;fill-rule:nonzero;fill:url(#radial1);" d="M 7.609375 14.101562 L 6.285156 14.101562 L 6.285156 14.679688 L 7.609375 14.679688 Z M 7.609375 14.101562 "/>
<path style=" stroke:none;fill-rule:nonzero;fill:url(#radial2);" d="M 7.609375 14.101562 L 6.285156 14.101562 L 6.285156 13.519531 L 7.609375 13.519531 Z M 7.609375 14.101562 "/>
<path style=" stroke:none;fill-rule:nonzero;fill:url(#radial3);" d="M 8.269531 14.101562 L 9.59375 14.101562 L 9.59375 14.679688 L 8.269531 14.679688 Z M 8.269531 14.101562 "/>
<path style=" stroke:none;fill-rule:nonzero;fill:url(#linear0);" d="M 7.609375 13.953125 L 8.269531 13.953125 L 8.269531 14.679688 L 7.609375 14.679688 Z M 7.609375 13.953125 "/>
<path style=" stroke:none;fill-rule:nonzero;fill:rgb(0%,0%,0%);fill-opacity:0.235294;" d="M 6.945312 1.902344 C 6.761719 1.902344 6.613281 2.050781 6.613281 2.234375 C 6.613281 2.261719 6.617188 2.289062 6.625 2.316406 C 6.660156 2.171875 6.792969 2.066406 6.945312 2.066406 C 7.101562 2.066406 7.230469 2.171875 7.265625 2.316406 C 7.273438 2.289062 7.277344 2.261719 7.277344 2.234375 C 7.277344 2.050781 7.128906 1.902344 6.945312 1.902344 Z M 5.054688 3.886719 C 5.042969 3.941406 5.03125 3.996094 5.019531 4.054688 L 7.9375 4.054688 L 7.9375 3.886719 Z M 10.914062 6.535156 C 10.914062 7.082031 10.472656 7.527344 9.921875 7.527344 L 5.953125 7.527344 C 5.402344 7.527344 4.960938 7.96875 4.960938 8.519531 L 4.960938 8.683594 C 4.960938 8.132812 5.402344 7.691406 5.953125 7.691406 L 9.921875 7.691406 C 10.472656 7.691406 10.914062 7.25 10.914062 6.699219 Z M 1.65625 7.609375 C 1.652344 7.636719 1.652344 7.664062 1.652344 7.691406 C 1.652344 9.339844 3.128906 10.667969 4.960938 10.667969 L 4.960938 10.503906 C 3.160156 10.503906 1.703125 9.21875 1.65625 7.609375 Z M 1.65625 7.609375 "/>
<path style=" stroke:none;fill-rule:nonzero;fill:url(#linear1);" d="M 7.9375 14.015625 C 9.382812 14.015625 10.582031 12.882812 10.855469 11.371094 L 7.9375 11.371094 L 7.9375 10.710938 L 9.921875 10.710938 C 9.921875 10.710938 9.921875 10.710938 9.925781 10.710938 L 10.914062 10.710938 C 12.746094 10.710938 14.222656 9.382812 14.222656 7.734375 C 14.222656 6.082031 12.746094 4.753906 10.914062 4.753906 L 10.914062 6.738281 C 10.914062 7.289062 10.472656 7.734375 9.921875 7.734375 L 5.953125 7.734375 C 5.402344 7.734375 4.960938 8.175781 4.960938 8.726562 L 4.960938 10.710938 C 4.960938 12.542969 6.289062 14.015625 7.9375 14.015625 Z M 8.929688 13.355469 C 8.746094 13.355469 8.601562 13.207031 8.601562 13.023438 C 8.601562 12.839844 8.746094 12.695312 8.929688 12.695312 C 9.113281 12.695312 9.261719 12.839844 9.261719 13.023438 C 9.261719 13.207031 9.113281 13.355469 8.929688 13.355469 Z M 8.929688 13.355469 "/>
<path style=" stroke:none;fill-rule:nonzero;fill:rgb(0%,0%,0%);fill-opacity:0.235294;" d="M 4.960938 6.738281 L 4.960938 9.054688 C 4.960938 8.503906 5.402344 8.0625 5.953125 8.0625 L 9.921875 8.0625 C 10.472656 8.0625 10.914062 7.621094 10.914062 7.070312 L 10.914062 6.738281 Z M 4.960938 6.738281 "/>
<path style=" stroke:none;fill-rule:nonzero;fill:url(#linear2);" d="M 7.9375 1.449219 C 6.492188 1.449219 5.292969 2.582031 5.019531 4.09375 L 7.9375 4.09375 L 7.9375 4.753906 L 4.960938 4.753906 C 3.128906 4.753906 1.652344 6.082031 1.652344 7.734375 C 1.652344 9.382812 3.128906 10.710938 4.960938 10.710938 L 4.960938 8.726562 C 4.960938 8.175781 5.402344 7.734375 5.953125 7.734375 L 9.921875 7.734375 C 10.472656 7.734375 10.914062 7.289062 10.914062 6.738281 L 10.914062 4.753906 C 10.914062 2.921875 9.585938 1.449219 7.9375 1.449219 Z M 6.945312 2.109375 C 7.128906 2.109375 7.277344 2.257812 7.277344 2.441406 C 7.277344 2.625 7.128906 2.769531 6.945312 2.769531 C 6.761719 2.769531 6.613281 2.625 6.613281 2.441406 C 6.613281 2.257812 6.761719 2.109375 6.945312 2.109375 Z M 6.945312 2.109375 "/>
<path style=" stroke:none;fill-rule:nonzero;fill:rgb(100%,100%,100%);fill-opacity:0.392157;" d="M 7.9375 1.488281 C 6.492188 1.488281 5.292969 2.621094 5.019531 4.136719 L 5.054688 4.136719 C 5.382812 2.707031 6.546875 1.65625 7.9375 1.65625 C 9.585938 1.65625 10.914062 3.128906 10.914062 4.960938 L 10.914062 4.796875 C 10.914062 2.964844 9.585938 1.488281 7.9375 1.488281 Z M 6.625 2.5625 C 6.617188 2.589844 6.613281 2.617188 6.613281 2.648438 C 6.613281 2.832031 6.761719 2.976562 6.945312 2.976562 C 7.128906 2.976562 7.277344 2.832031 7.277344 2.648438 C 7.277344 2.617188 7.273438 2.589844 7.265625 2.5625 C 7.230469 2.707031 7.101562 2.8125 6.945312 2.8125 C 6.792969 2.8125 6.660156 2.707031 6.625 2.5625 Z M 5.953125 4.796875 L 4.960938 4.796875 C 3.128906 4.796875 1.652344 6.125 1.652344 7.773438 C 1.652344 7.800781 1.652344 7.828125 1.65625 7.855469 C 1.703125 6.246094 3.160156 4.960938 4.960938 4.960938 L 7.9375 4.960938 L 7.9375 4.796875 Z M 5.953125 4.796875 "/>
<path style=" stroke:none;fill-rule:nonzero;fill:rgb(100%,100%,100%);fill-opacity:0.392157;" d="M 10.914062 4.796875 L 10.914062 4.960938 C 12.714844 4.960938 14.171875 6.246094 14.222656 7.855469 C 14.222656 7.828125 14.222656 7.800781 14.222656 7.773438 C 14.222656 6.125 12.746094 4.796875 10.914062 4.796875 Z M 7.9375 11.414062 L 7.9375 11.578125 L 10.820312 11.578125 C 10.835938 11.523438 10.847656 11.46875 10.855469 11.414062 Z M 8.609375 13.148438 C 8.601562 13.175781 8.601562 13.203125 8.601562 13.230469 C 8.601562 13.414062 8.746094 13.5625 8.929688 13.5625 C 9.113281 13.5625 9.261719 13.414062 9.261719 13.230469 C 9.261719 13.203125 9.257812 13.175781 9.25 13.148438 C 9.214844 13.292969 9.085938 13.398438 8.929688 13.398438 C 8.777344 13.398438 8.648438 13.292969 8.609375 13.148438 Z M 8.609375 13.148438 "/>
<path style=" stroke:none;fill-rule:nonzero;fill:rgb(0%,0%,0%);fill-opacity:0.235294;" d="M 14.222656 7.609375 C 14.171875 9.21875 12.714844 10.503906 10.914062 10.503906 L 9.925781 10.503906 C 9.921875 10.503906 9.921875 10.503906 9.921875 10.503906 L 7.9375 10.503906 L 7.9375 10.667969 L 9.921875 10.667969 C 9.921875 10.667969 9.921875 10.667969 9.925781 10.667969 L 10.914062 10.667969 C 12.746094 10.667969 14.222656 9.339844 14.222656 7.691406 C 14.222656 7.664062 14.222656 7.636719 14.222656 7.609375 Z M 4.960938 10.503906 L 4.960938 10.667969 C 4.960938 12.5 6.289062 13.976562 7.9375 13.976562 C 9.382812 13.976562 10.582031 12.84375 10.855469 11.328125 L 10.820312 11.328125 C 10.492188 12.757812 9.332031 13.808594 7.9375 13.808594 C 6.289062 13.808594 4.960938 12.335938 4.960938 10.503906 Z M 8.929688 12.488281 C 8.746094 12.488281 8.601562 12.632812 8.601562 12.816406 C 8.601562 12.847656 8.601562 12.875 8.609375 12.902344 C 8.648438 12.757812 8.777344 12.652344 8.929688 12.652344 C 9.085938 12.652344 9.214844 12.757812 9.25 12.902344 C 9.257812 12.875 9.261719 12.847656 9.261719 12.816406 C 9.261719 12.632812 9.113281 12.488281 8.929688 12.488281 Z M 8.929688 12.488281 "/>
<path style=" stroke:none;fill-rule:nonzero;fill:rgb(12.941177%,12.941177%,12.941177%);fill-opacity:1;" d="M 7.9375 1.402344 C 6.46875 1.402344 5.253906 2.554688 4.972656 4.085938 C 4.972656 4.097656 4.976562 4.113281 4.984375 4.125 C 4.992188 4.136719 5.007812 4.140625 5.019531 4.140625 L 7.890625 4.140625 L 7.890625 4.707031 L 4.960938 4.707031 C 3.105469 4.707031 1.605469 6.054688 1.605469 7.734375 C 1.605469 9.410156 3.105469 10.757812 4.960938 10.757812 C 4.988281 10.757812 5.007812 10.734375 5.007812 10.710938 L 5.007812 8.726562 C 5.007812 8.199219 5.429688 7.78125 5.953125 7.78125 L 9.921875 7.78125 C 10.496094 7.78125 10.960938 7.316406 10.960938 6.738281 L 10.960938 4.753906 C 10.960938 2.902344 9.617188 1.402344 7.9375 1.402344 Z M 7.9375 1.496094 C 9.558594 1.496094 10.867188 2.945312 10.867188 4.753906 L 10.867188 6.738281 C 10.867188 7.265625 10.449219 7.6875 9.921875 7.6875 L 5.953125 7.6875 C 5.378906 7.6875 4.914062 8.148438 4.914062 8.726562 L 4.914062 10.660156 C 3.125 10.640625 1.699219 9.339844 1.699219 7.734375 C 1.699219 6.109375 3.152344 4.800781 4.960938 4.800781 L 7.9375 4.800781 C 7.964844 4.800781 7.984375 4.78125 7.984375 4.753906 L 7.984375 4.09375 C 7.984375 4.066406 7.964844 4.046875 7.9375 4.046875 L 5.078125 4.046875 C 5.367188 2.582031 6.535156 1.496094 7.9375 1.496094 Z M 6.945312 2.0625 C 6.738281 2.0625 6.566406 2.230469 6.566406 2.441406 C 6.566406 2.648438 6.738281 2.816406 6.945312 2.816406 C 7.15625 2.816406 7.324219 2.648438 7.324219 2.441406 C 7.324219 2.230469 7.15625 2.0625 6.945312 2.0625 Z M 6.945312 2.15625 C 7.105469 2.15625 7.230469 2.28125 7.230469 2.441406 C 7.230469 2.597656 7.105469 2.722656 6.945312 2.722656 C 6.789062 2.722656 6.660156 2.597656 6.660156 2.441406 C 6.660156 2.28125 6.789062 2.15625 6.945312 2.15625 Z M 6.945312 2.15625 "/>
<path style=" stroke:none;fill-rule:nonzero;fill:rgb(12.941177%,12.941177%,12.941177%);fill-opacity:1;" d="M 10.914062 4.707031 C 10.890625 4.707031 10.867188 4.730469 10.867188 4.753906 L 10.867188 6.738281 C 10.867188 7.265625 10.449219 7.6875 9.921875 7.6875 L 5.953125 7.6875 C 5.378906 7.6875 4.914062 8.148438 4.914062 8.726562 L 4.914062 10.710938 C 4.914062 12.5625 6.261719 14.0625 7.9375 14.0625 C 9.40625 14.0625 10.625 12.910156 10.902344 11.378906 C 10.90625 11.367188 10.902344 11.351562 10.890625 11.339844 C 10.882812 11.332031 10.871094 11.324219 10.855469 11.324219 L 7.984375 11.324219 L 7.984375 10.757812 L 9.921875 10.757812 C 9.925781 10.757812 9.925781 10.757812 9.925781 10.757812 L 10.914062 10.757812 C 12.769531 10.757812 14.269531 9.410156 14.269531 7.734375 C 14.269531 6.054688 12.769531 4.707031 10.914062 4.707031 Z M 10.960938 4.804688 C 12.75 4.828125 14.175781 6.125 14.175781 7.734375 C 14.175781 9.355469 12.726562 10.664062 10.914062 10.664062 L 9.925781 10.664062 C 9.921875 10.664062 9.921875 10.664062 9.921875 10.664062 L 7.9375 10.664062 C 7.914062 10.664062 7.890625 10.683594 7.890625 10.710938 L 7.890625 11.371094 C 7.890625 11.398438 7.914062 11.417969 7.9375 11.417969 L 10.796875 11.417969 C 10.507812 12.882812 9.339844 13.96875 7.9375 13.96875 C 6.316406 13.96875 5.007812 12.519531 5.007812 10.710938 L 5.007812 8.726562 C 5.007812 8.199219 5.429688 7.78125 5.953125 7.78125 L 9.921875 7.78125 C 10.496094 7.78125 10.960938 7.316406 10.960938 6.738281 Z M 8.929688 12.648438 C 8.722656 12.648438 8.554688 12.816406 8.554688 13.023438 C 8.554688 13.234375 8.722656 13.402344 8.929688 13.402344 C 9.140625 13.402344 9.308594 13.234375 9.308594 13.023438 C 9.308594 12.816406 9.140625 12.648438 8.929688 12.648438 Z M 8.929688 12.742188 C 9.089844 12.742188 9.214844 12.867188 9.214844 13.023438 C 9.214844 13.183594 9.089844 13.308594 8.929688 13.308594 C 8.773438 13.308594 8.648438 13.183594 8.648438 13.023438 C 8.648438 12.867188 8.773438 12.742188 8.929688 12.742188 Z M 8.929688 12.742188 "/>
<path style=" stroke:none;fill-rule:nonzero;fill:rgb(100%,100%,100%);fill-opacity:0.235294;" d="M 2.816406 6.011719 C 2.914062 6.066406 2.878906 6.304688 2.742188 6.542969 C 2.605469 6.777344 2.417969 6.925781 2.324219 6.871094 C 2.226562 6.816406 2.261719 6.582031 2.398438 6.34375 C 2.535156 6.105469 2.722656 5.957031 2.816406 6.011719 Z M 2.816406 6.011719 "/>
<path style=" stroke:none;fill-rule:nonzero;fill:rgb(100%,100%,100%);fill-opacity:0.235294;" d="M 6.277344 2.507812 C 6.371094 2.5625 6.339844 2.796875 6.203125 3.035156 C 6.066406 3.273438 5.878906 3.421875 5.78125 3.367188 C 5.6875 3.3125 5.722656 3.074219 5.859375 2.835938 C 5.996094 2.601562 6.183594 2.453125 6.277344 2.507812 Z M 6.277344 2.507812 "/>
</g>
</svg>
